X: 1859
T: Schaefer's Schottische
B: australian traditional tunes wiki
M:4/4
L:1/8
R: Schottische
Q: 1/4=100
K:D
V:1 
F>G|"D"A>F A>d f2 d2|"G"B>G B>d g2 e2|"A7"c>A c>e a>g f>e|"D"(3dfe (3dcB "A7"A2 F>G|
"D"A>F A>d f2 d2|"G"B>G B>d g2 f>e|"D"d>e d>B "A7"A>B c>e|"D"d2 f2 d2 f>g||
a>b a>f d2 A2|"A7"e>f e>d c2 A2|"D"a>^g b>a "Bm"f>d c>d|"A7"(3efe (3dcB "D7"A2 f>g|
"D"a>b a>f d2 A2|"A7"e>f e>d c2 a>g|"D"f>a "(Bm)"f>d "Em"B>g e>c|"D"d2 f2 d2||
% abcbook-tune_id 6342d53a614948c6131fc60a


% abcbook-boost 0
% abcbook-tablature 
% abcbook-transpose 
% abcbook-lastupdated 1665324388617
% abcbook-soundfonts 
% abcbook-repeats 1
% NFF Book 2007

